X: 10582
Q: "Allegretto"
M: 2/4
L: 1/16
K: C
c4 (edcd) | e2c2~c2B2 |\
c4 (edcd) | e2c2c2B2 |\
(GF) |\
E2G2TG3F | E2G2 G2cB |\
E2G2 TG2AB | c2ec B2dB |\
c2c2 {f}e2dc | Hg4 G2 !segno!|]


